;FLAVOR:Marlin
;TIME:6226
;Filament used: 4.52339m
;Layer height: 0.2
;MINX:79.755
;MINY:56.5
;MINZ:0.2
;MAXX:155.245
;MAXY:178.5
;MAXZ:5
;Generated with Cura_SteamEngine 4.6.1
M140 S60
M105
M190 S60
M104 S200
M105
M109 S200
M82 ;absolute extrusion mode
; Ender 3 Custom Start G-code
G92 E0 ; Reset Extruder
G28 ; Home all axes
G1 Z2.0 F3000 ; Move Z Axis up little to prevent scratching of Heat Bed
G1 X0.1 Y20 Z0.3 F5000.0 ; Move to start position
G1 X0.1 Y200.0 Z0.3 F1500.0 E15 ; Draw the first line
G1 X0.4 Y200.0 Z0.3 F5000.0 ; Move to side a little
G1 X0.4 Y20 Z0.3 F1500.0 E30 ; Draw the second line
G92 E0 ; Reset Extruder
G1 Z2.0 F3000 ; Move Z Axis up little to prevent scratching of Heat Bed
G1 X5 Y20 Z0.3 F5000.0 ; Move over to prevent blob squish
G92 E0
G92 E0
G1 F1500 E-6.5
;LAYER_COUNT:25
;LAYER:0
M107
G0 F6000 X144.382 Y57.311 Z0.2
;TYPE:SKIRT
G1 F1500 E0
G1 F1200 X145.284 Y57.364 E0.03005
G1 X146.177 Y57.496 E0.06008
G1 X147.055 Y57.707 E0.09011
G1 X147.911 Y57.995 E0.12015
G1 X148.738 Y58.357 E0.15018
G1 X149.53 Y58.792 E0.18023
G1 X150.281 Y59.294 E0.21027
G1 X150.984 Y59.861 E0.24031
G1 X151.634 Y60.488 E0.27035
G1 X152.226 Y61.17 E0.30039
G1 X152.756 Y61.901 E0.33042
G1 X153.218 Y62.677 E0.36046
G1 X153.611 Y63.49 E0.39049
G1 X153.929 Y64.335 E0.42052
G1 X154.172 Y65.205 E0.45056
G1 X154.337 Y66.093 E0.4806
G1 X154.432 Y67.223 E0.51832
G1 X154.445 Y67.83 E0.53851
G1 X154.445 Y166.764 E3.82907
G1 X154.435 Y167.617 E3.85745
G1 X154.384 Y168.519 E3.88749
G1 X154.253 Y169.413 E3.91755
G1 X154.044 Y170.291 E3.94756
G1 X153.758 Y171.148 E3.97761
G1 X153.397 Y171.976 E4.00766
G1 X152.965 Y172.768 E4.03766
G1 X152.464 Y173.52 E4.06772
G1 X151.898 Y174.224 E4.09776
G1 X151.273 Y174.875 E4.12778
G1 X150.592 Y175.469 E4.15783
G1 X149.861 Y176 E4.18788
G1 X149.087 Y176.464 E4.2179
G1 X148.274 Y176.858 E4.24795
G1 X147.43 Y177.178 E4.27797
G1 X146.56 Y177.423 E4.30803
G1 X145.673 Y177.589 E4.33804
G1 X144.522 Y177.687 E4.37647
G1 X143.915 Y177.7 E4.39666
G1 X91.33 Y177.699 E6.14564
G1 X90.632 Y177.69 E6.16886
G1 X89.731 Y177.639 E6.19888
G1 X88.837 Y177.507 E6.22893
G1 X87.959 Y177.298 E6.25895
G1 X87.102 Y177.011 E6.28901
G1 X86.275 Y176.65 E6.31902
G1 X85.482 Y176.217 E6.34907
G1 X84.731 Y175.716 E6.3791
G1 X84.027 Y175.15 E6.40914
G1 X83.376 Y174.524 E6.43918
G1 X82.783 Y173.843 E6.46922
G1 X82.253 Y173.112 E6.49925
G1 X81.789 Y172.337 E6.52929
G1 X81.395 Y171.524 E6.55934
G1 X81.075 Y170.68 E6.58936
G1 X80.831 Y169.81 E6.61942
G1 X80.665 Y168.922 E6.64946
G1 X80.568 Y167.767 E6.68801
G1 X80.555 Y167.158 E6.70827
G1 X80.556 Y127.995 E8.01084
G1 X80.574 Y127.096 E8.04075
G1 X80.589 Y126.761 E8.0519
G1 X80.694 Y125.689 E8.08772
G1 X80.754 Y125.293 E8.10105
G1 X81.04 Y123.99 E8.14542
G1 X81.144 Y123.63 E8.15788
G1 X81.573 Y122.43 E8.20027
G1 X81.724 Y122.079 E8.21297
G1 X82.28 Y120.976 E8.25406
G1 X82.595 Y120.444 E8.27462
G1 X82.894 Y119.965 E8.2934
G1 X83.978 Y118.28 E8.36004
G1 X85.304 Y116.081 E8.44545
G1 X86.545 Y113.886 E8.52931
G1 X87.735 Y111.633 E8.61406
G1 X88.85 Y109.373 E8.69788
G1 X89.916 Y107.045 E8.78304
G1 X90.912 Y104.698 E8.86784
G1 X91.846 Y102.317 E8.95291
G1 X92.687 Y99.968 E9.03589
G1 X93.479 Y97.549 E9.12055
G1 X94.207 Y95.093 E9.20575
G1 X94.849 Y92.679 E9.28883
G1 X95.441 Y90.171 E9.37454
G1 X95.957 Y87.669 E9.45951
G1 X96.394 Y85.193 E9.54313
G1 X96.763 Y82.697 E9.62705
G1 X97.068 Y80.133 E9.71293
G1 X97.295 Y77.627 E9.79662
G1 X97.452 Y75.102 E9.88077
G1 X97.537 Y72.564 E9.96523
G1 X97.555 Y70.705 E10.02706
G1 X97.556 Y68.021 E10.11633
G1 X97.566 Y67.356 E10.13845
G1 X97.62 Y66.454 E10.16851
G1 X97.753 Y65.561 E10.19854
G1 X97.964 Y64.683 E10.22857
G1 X98.253 Y63.827 E10.25862
G1 X98.616 Y63 E10.28866
G1 X99.05 Y62.209 E10.31867
G1 X99.553 Y61.458 E10.34873
G1 X100.121 Y60.756 E10.37876
G1 X100.748 Y60.106 E10.4088
G1 X101.43 Y59.514 E10.43884
G1 X102.162 Y58.985 E10.46888
G1 X102.938 Y58.523 E10.49892
G1 X103.752 Y58.132 E10.52895
G1 X104.597 Y57.813 E10.55899
G1 X105.467 Y57.571 E10.58903
G1 X106.355 Y57.407 E10.61906
G1 X107.478 Y57.313 E10.65654
G1 X108.085 Y57.3 E10.67674
G1 X143.684 Y57.301 E11.86076
G1 X144.382 Y57.311 E11.88398
G0 F6000 X144.388 Y56.911
G1 F1200 X145.307 Y56.964 E11.9146
G1 X146.218 Y57.097 E11.94522
G1 X147.114 Y57.308 E11.97584
G1 X147.988 Y57.596 E12.00644
G1 X148.835 Y57.959 E12.03709
G1 X149.646 Y58.394 E12.0677
G1 X150.416 Y58.898 E12.09831
G1 X151.14 Y59.467 E12.12894
G1 X151.812 Y60.097 E12.15958
G1 X152.427 Y60.782 E12.19019
G1 X152.98 Y61.518 E12.22081
G1 X153.467 Y62.299 E12.25143
G1 X153.884 Y63.12 E12.28205
G1 X154.229 Y63.974 E12.31269
G1 X154.498 Y64.854 E12.34329
G1 X154.69 Y65.755 E12.37393
G1 X154.803 Y66.668 E12.40453
G1 X154.832 Y67.212 E12.42265
G1 X154.845 Y67.83 E12.44321
G1 X154.845 Y166.764 E15.73377
G1 X154.835 Y167.622 E15.76231
G1 X154.784 Y168.541 E15.79292
G1 X154.653 Y169.453 E15.82356
G1 X154.443 Y170.349 E15.85417
G1 X154.157 Y171.224 E15.88479
G1 X153.796 Y172.071 E15.91541
G1 X153.362 Y172.883 E15.94604
G1 X152.86 Y173.655 E15.97666
G1 X152.292 Y174.38 E16.0073
G1 X151.664 Y175.053 E16.03791
G1 X150.98 Y175.669 E16.06853
G1 X150.245 Y176.223 E16.09914
G1 X149.465 Y176.712 E16.12976
G1 X148.645 Y177.131 E16.16039
G1 X147.792 Y177.477 E16.19101
G1 X146.912 Y177.748 E16.22163
G1 X146.012 Y177.941 E16.25225
G1 X145.098 Y178.056 E16.28288
G1 X144.533 Y178.087 E16.3017
G1 X143.915 Y178.1 E16.32226
G1 X91.325 Y178.099 E18.07141
G1 X90.627 Y178.09 E18.09463
G1 X89.708 Y178.038 E18.12525
G1 X88.797 Y177.907 E18.15586
G1 X87.901 Y177.697 E18.18647
G1 X87.026 Y177.41 E18.2171
G1 X86.179 Y177.048 E18.24773
G1 X85.367 Y176.614 E18.27835
G1 X84.596 Y176.112 E18.30895
G1 X83.871 Y175.544 E18.33959
G1 X83.198 Y174.915 E18.37023
G1 X82.583 Y174.231 E18.40082
G1 X82.029 Y173.496 E18.43143
G1 X81.541 Y172.715 E18.46206
G1 X81.122 Y171.895 E18.49269
G1 X80.776 Y171.042 E18.52331
G1 X80.506 Y170.162 E18.55392
G1 X80.313 Y169.261 E18.58457
G1 X80.199 Y168.348 E18.61517
G1 X80.168 Y167.777 E18.63419
G1 X80.155 Y167.158 E18.65478
G1 X80.156 Y127.989 E19.95755
G1 X80.165 Y127.392 E19.97741
G1 X80.19 Y126.743 E19.99901
G1 X80.299 Y125.629 E20.03624
G1 X80.359 Y125.233 E20.04956
G1 X80.536 Y124.33 E20.08017
G1 X80.655 Y123.879 E20.09568
G1 X80.759 Y123.519 E20.10814
G1 X81.206 Y122.272 E20.1522
G1 X81.357 Y121.921 E20.16491
G1 X81.934 Y120.775 E20.20759
G1 X82.255 Y120.233 E20.22854
G1 X82.557 Y119.749 E20.24751
G1 X83.641 Y118.063 E20.31418
G1 X84.962 Y115.873 E20.39924
G1 X86.186 Y113.708 E20.48196
G1 X87.38 Y111.448 E20.56698
G1 X88.499 Y109.179 E20.65112
G1 X89.548 Y106.888 E20.73493
G1 X90.543 Y104.544 E20.81962
G1 X91.461 Y102.203 E20.90326
G1 X92.314 Y99.824 E20.98732
G1 X93.091 Y97.448 E21.07046
G1 X93.822 Y94.982 E21.15601
G1 X94.467 Y92.556 E21.2395
G1 X95.046 Y90.104 E21.3233
G1 X95.565 Y87.59 E21.40868
G1 X95.998 Y85.136 E21.49156
G1 X96.369 Y82.627 E21.57591
G1 X96.667 Y80.117 E21.65998
G1 X96.895 Y77.602 E21.74398
G1 X97.052 Y75.063 E21.82859
G1 X97.138 Y72.505 E21.91371
G1 X97.155 Y70.804 E21.97029
G1 X97.156 Y68.015 E22.06305
G1 X97.166 Y67.35 E22.08517
G1 X97.22 Y66.431 E22.11579
G1 X97.353 Y65.52 E22.14641
G1 X97.565 Y64.624 E22.17704
G1 X97.854 Y63.749 E22.20769
G1 X98.218 Y62.904 E22.23829
G1 X98.653 Y62.093 E22.2689
G1 X99.158 Y61.322 E22.29955
G1 X99.727 Y60.599 E22.33015
G1 X100.357 Y59.927 E22.36079
G1 X101.043 Y59.313 E22.39141
G1 X101.779 Y58.761 E22.42201
G1 X102.561 Y58.274 E22.45265
G1 X103.382 Y57.858 E22.48326
G1 X104.236 Y57.514 E22.51388
G1 X105.116 Y57.245 E22.54449
G1 X106.017 Y57.054 E22.57512
G1 X106.931 Y56.942 E22.60575
G1 X107.467 Y56.913 E22.6236
G1 X108.085 Y56.9 E22.64416
G1 X143.69 Y56.901 E23.82839
G1 X144.388 Y56.911 E23.85161
G0 F6000 X144.394 Y56.511
G1 F1200 X145.33 Y56.565 E23.88279
G1 X146.258 Y56.697 E23.91397
G1 X147.172 Y56.909 E23.94518
G1 X148.064 Y57.198 E23.97636
G1 X148.929 Y57.561 E24.00756
G1 X149.759 Y57.997 E24.03875
G1 X150.55 Y58.502 E24.06996
G1 X151.294 Y59.073 E24.10115
G1 X151.987 Y59.705 E24.13235
G1 X152.624 Y60.393 E24.16353
G1 X153.199 Y61.134 E24.19473
G1 X153.71 Y61.92 E24.22591
G1 X154.152 Y62.748 E24.25713
G1 X154.521 Y63.61 E24.28831
G1 X154.816 Y64.5 E24.3195
G1 X155.034 Y65.412 E24.35069
G1 X155.174 Y66.34 E24.3819
G1 X155.232 Y67.201 E24.4106
G1 X155.245 Y67.83 E24.43153
G1 X155.245 Y166.764 E27.72209
G1 X155.235 Y167.627 E27.75079
G1 X155.184 Y168.564 E27.782
G1 X155.052 Y169.492 E27.81318
G1 X154.843 Y170.406 E27.84436
G1 X154.556 Y171.299 E27.87556
G1 X154.194 Y172.165 E27.90678
G1 X153.76 Y172.996 E27.93796
G1 X153.256 Y173.787 E27.96916
G1 X152.687 Y174.532 E28.00034
G1 X152.056 Y175.227 E28.03156
G1 X151.369 Y175.865 E28.06274
G1 X150.63 Y176.442 E28.09392
G1 X149.844 Y176.954 E28.12512
G1 X149.018 Y177.397 E28.1563
G1 X148.156 Y177.769 E28.18752
G1 X147.267 Y178.065 E28.21869
G1 X146.355 Y178.285 E28.24989
G1 X145.428 Y178.426 E28.28108
G1 X144.544 Y178.487 E28.31055
G1 X143.915 Y178.5 E28.33148
G1 X91.32 Y178.499 E30.08079
G1 X90.622 Y178.49 E30.10401
G1 X89.686 Y178.438 E30.13519
G1 X88.757 Y178.306 E30.1664
G1 X87.843 Y178.096 E30.19759
G1 X86.95 Y177.809 E30.22879
G1 X86.085 Y177.446 E30.25999
G1 X85.254 Y177.012 E30.29117
G1 X84.463 Y176.508 E30.32237
G1 X83.718 Y175.938 E30.35356
G1 X83.024 Y175.307 E30.38476
G1 X82.387 Y174.62 E30.41592
G1 X81.81 Y173.88 E30.44713
G1 X81.298 Y173.094 E30.47833
G1 X80.855 Y172.267 E30.50954
G1 X80.484 Y171.406 E30.54072
G1 X80.188 Y170.516 E30.57191
G1 X79.969 Y169.604 E30.60311
G1 X79.828 Y168.677 E30.6343
G1 X79.768 Y167.788 E30.66393
G1 X79.755 Y167.158 E30.68489
G1 X79.756 Y127.983 E31.98786
G1 X79.765 Y127.386 E32.00772
G1 X79.79 Y126.725 E32.02972
G1 X79.903 Y125.569 E32.06835
G1 X79.963 Y125.173 E32.08167
G1 X80.143 Y124.253 E32.11285
G1 X80.271 Y123.768 E32.12953
G1 X80.375 Y123.408 E32.142
G1 X80.838 Y122.114 E32.18771
G1 X80.989 Y121.763 E32.20041
G1 X81.589 Y120.574 E32.24471
G1 X81.915 Y120.022 E32.26603
G1 X82.221 Y119.532 E32.28525
G1 X83.306 Y117.845 E32.35196
G1 X84.615 Y115.675 E32.43625
G1 X85.836 Y113.516 E32.51875
G1 X87.018 Y111.278 E32.60293
G1 X88.134 Y109.014 E32.68688
G1 X89.193 Y106.701 E32.77149
G1 X90.156 Y104.433 E32.85344
G1 X91.092 Y102.047 E32.93869
G1 X91.943 Y99.669 E33.02269
G1 X92.711 Y97.325 E33.10473
G1 X93.429 Y94.903 E33.18875
G1 X94.086 Y92.434 E33.27373
G1 X94.652 Y90.03 E33.35587
G1 X95.173 Y87.512 E33.4414
G1 X95.601 Y85.081 E33.5235
G1 X95.975 Y82.558 E33.60833
G1 X96.27 Y80.07 E33.69166
G1 X96.496 Y77.577 E33.77492
G1 X96.652 Y75.06 E33.85879
G1 X96.739 Y72.487 E33.94442
G1 X96.755 Y70.804 E34.0004
G1 X96.756 Y68.009 E34.09336
G1 X96.766 Y67.344 E34.11548
G1 X96.82 Y66.407 E34.1467
G1 X96.954 Y65.479 E34.17788
G1 X97.166 Y64.565 E34.20909
G1 X97.455 Y63.673 E34.24028
G1 X97.82 Y62.809 E34.27147
G1 X98.256 Y61.979 E34.30266
G1 X98.762 Y61.189 E34.33386
G1 X99.333 Y60.445 E34.36505
G1 X99.965 Y59.752 E34.39625
G1 X100.654 Y59.116 E34.42743
G1 X101.395 Y58.541 E34.45863
G1 X102.182 Y58.031 E34.48982
G1 X103.01 Y57.59 E34.52102
G1 X103.872 Y57.221 E34.55221
G1 X104.763 Y56.927 E34.58342
G1 X105.675 Y56.709 E34.6146
G1 X106.602 Y56.571 E34.64578
G1 X107.456 Y56.513 E34.67425
G1 X108.085 Y56.5 E34.69517
G1 X143.696 Y56.501 E35.8796
G1 X144.394 Y56.511 E35.90282
G1 F1500 E29.40282
;MESH:Mount Plate.stl
G0 F6000 X143.825 Y66.835
G0 X143.825 Y67.92
G0 X143.677 Y165.17
G0 X143.512 Y165.803
G0 X143.304 Y166.11
G0 X142.635 Y166.9
;TYPE:WALL-INNER
G1 F1500 E35.90282
G1 F1200 X142.687 Y166.879 E35.90468
G1 X142.991 Y166.694 E35.91652
G1 X143.182 Y166.526 E35.92498
G1 X143.249 Y166.467 E35.92795
G1 X143.259 Y166.458 E35.92839
G1 X143.483 Y166.181 E35.94024
G1 X143.645 Y165.894 E35.9512
G1 X143.645 Y166.181 E35.95285
G1 X143.645 Y166.458 E35.95895
G1 X143.645 Y166.472 E35.95941
G1 X143.645 Y166.9 E35.97365
G1 X143.246 Y166.9 E35.98692
G1 X142.991 Y166.9 E35.99327
G1 X142.687 Y166.9 E35.99582
G1 X142.635 Y166.9
G0 F6000 X140.861 Y166.9
G1 F1200 X140.637 Y166.9 E36.00327
G1 X140.352 Y166.9 E36.01275
G1 X140.268 Y166.9 E36.01555
G1 X94.756 Y166.9 E37.52928
G1 X94.501 Y166.9 E37.53776
G1 X94.199 Y166.9 E37.54781
G1 X94.145 Y166.9 E37.5496
G1 X94.199 Y166.878
G1 X94.501 Y166.693 E37.5539
G1 X94.692 Y166.525 E37.56045
G1 X94.769 Y166.458 E37.56385
G1 X94.993 Y166.181 E37.57569
G1 X95.169 Y165.87 E37.58758
G1 X95.287 Y165.534 E37.59942
G1 X95.349 Y165.185 E37.61121
G1 X95.351 Y164.829 E37.62305
G1 X95.292 Y164.475 E37.63499
G1 X95.173 Y164.136 E37.64694
G1 X94.999 Y163.827 E37.65874
G1 X94.776 Y163.549 E37.67059
G1 X94.509 Y163.314 E37.68242
G1 X94.207 Y163.126 E37.69425
G1 X93.876 Y162.993 E37.70612
G1 X93.528 Y162.916 E37.71797
G1 X93.172 Y162.899 E37.72982
G1 X92.818 Y162.944 E37.74169
G1 X92.476 Y163.047 E37.75357
G1 X92.157 Y163.208 E37.76546
G1 X91.87 Y163.418 E37.77729
G1 X91.735 Y163.559 E37.78378
G1 X91.623 Y163.676 E37.78917
G1 X91.423 Y163.971 E37.80102
G1 X91.355 Y164.121 E37.8065
G1 X91.355 Y163.971 E37.80682
G1 X91.355 Y163.676 E37.81064
G1 X91.355 Y163.513 E37.81524
G1 X91.355 Y127.48 E39.0137
G1 X91.374 Y127.176 E39.02383
G1 X91.425 Y126.899 E39.0332
G1 X91.514 Y126.614 E39.04313
G1 X91.632 Y126.351 E39.05272
G1 X91.776 Y126.112 E39.062
G1 X91.964 Y125.872 E39.07214
G1 X92.163 Y125.673 E39.0815
G1 X92.396 Y125.491 E39.09133
G1 X92.637 Y125.345 E39.1007
G1 X92.901 Y125.227 E39.11032
G1 X93.185 Y125.138 E39.12022
G1 X93.464 Y125.087 E39.12965
G1 X93.774 Y125.068 E39.13998
G1 X104.773 Y125.068 E39.50581
G1 X105.189 Y125.043 E39.51967
G1 X105.617 Y124.965 E39.53414
G1 X106.033 Y124.834 E39.54865
G1 X106.428 Y124.656 E39.56306
G1 X106.8 Y124.432 E39.5775
G1 X107.144 Y124.163 E39.59203
G1 X107.451 Y123.856 E39.60647
G1 X107.719 Y123.514 E39.62092
G1 X107.944 Y123.141 E39.63541
G1 X108.122 Y122.745 E39.64985
G1 X108.252 Y122.33 E39.66431
G1 X108.33 Y121.902 E39.67878
G1 X108.355 Y121.486 E39.69264
G1 X108.355 Y71.487 E41.35562
G1 X108.355 Y71.317 E41.36127
G1 X108.355 Y71.023 E41.37105
G1 X108.355 Y70.883 E41.37571
G1 X108.418 Y71.023 E41.3764
G1 X108.617 Y71.317 E41.3821
G1 X108.734 Y71.439 E41.38682
G1 X108.862 Y71.573 E41.39299
G1 X109.149 Y71.788 E41.40491
G1 X109.468 Y71.949 E41.4168
G1 X109.808 Y72.052 E41.42861
G1 X110.158 Y72.099 E41.44036
G1 X110.515 Y72.087 E41.45224
G1 X110.868 Y72.012 E41.46424
G1 X111.199 Y71.878 E41.47612
G1 X111.501 Y71.693 E41.4879
G1 X111.769 Y71.458 E41.49975
G1 X111.993 Y71.181 E41.5116
G1 X112.169 Y70.87 E41.52349
G1 X112.287 Y70.534 E41.53533
G1 X112.349 Y70.185 E41.54712
G1 X112.351 Y69.829 E41.55896
G1 X112.292 Y69.475 E41.5709
G1 X112.173 Y69.136 E41.58285
G1 X111.999 Y68.827 E41.59464
G1 X111.776 Y68.549 E41.6065
G1 X111.693 Y68.476 E41.61017
G1 X111.509 Y68.314 E41.61833
G1 X111.207 Y68.126 E41.63016
G1 X111.142 Y68.1 E41.63249
G1 X111.207 Y68.1
G1 X111.509 Y68.1 E41.63518
G1 X111.754 Y68.1 E41.64157
G1 X140.266 Y68.1 E42.58988
G1 X140.36 Y68.1 E42.59301
G1 X140.646 Y68.1 E42.60252
G1 X140.86 Y68.1 E42.60964
G1 X140.646 Y68.208 E42.61125
G1 X140.36 Y68.418 E42.61832
G1 X140.295 Y68.486 E42.62116
G1 X140.114 Y68.675 E42.62986
G1 X139.912 Y68.969 E42.64172
G1 X139.765 Y69.296 E42.65365
G1 X139.674 Y69.64 E42.66548
G1 X139.644 Y69.993 E42.67727
G1 X139.671 Y70.347 E42.68907
G1 X139.76 Y70.696 E42.70105
G1 X139.907 Y71.023 E42.71298
G1 X140.107 Y71.317 E42.72481
G1 X140.352 Y71.573 E42.73659
G1 X140.637 Y71.787 E42.74844
G1 X140.958 Y71.949 E42.7604
G1 X141.298 Y72.052 E42.77222
G1 X141.647 Y72.099 E42.78393
G1 X142.004 Y72.087 E42.79581
G1 X142.357 Y72.012 E42.80782
G1 X142.687 Y71.879 E42.81965
G1 X142.991 Y71.694 E42.83149
G1 X143.249 Y71.467 E42.84292
G1 X143.259 Y71.458 E42.84336
G1 X143.483 Y71.181 E42.85521
G1 X143.645 Y70.894 E42.86617
G1 X143.645 Y71.181 E42.86782
G1 X143.645 Y71.458 E42.87392
G1 X143.645 Y71.472 E42.87438
G1 X143.645 Y163.526 E45.93611
G1 X143.645 Y163.549 E45.93687
G1 X143.645 Y163.827 E45.94612
G1 X143.645 Y164.104 E45.95533
G1 X143.488 Y163.827 E45.95823
G1 X143.267 Y163.549 E45.96677
G1 X143.25 Y163.534 E45.9675
G1 X142.998 Y163.313 E45.97865
G1 X142.696 Y163.126 E45.99046
G1 X142.365 Y162.993 E46.00233
